X:1
T:OH No John
M:4/4
L:1/4
K:C
 G| c c d d| gg/2-f/2 e d| G c d d| g f d2| gg/2-f/2 e c|f/2-e/2d/2-c/2 B G|\
 c e A d| B G G2| g2 f d| e cB/2-A/2 G| c4-| c2 z||
